icon/pk/chafing-dish.svg

<svg viewBox="0 0 48 48" fill="none" xmlns="http://www.w3.org/2000/svg" height="1em" width="1em">
  <path d="M24 42C14.0589 42 6 33.9411 6 24C6 14.0589 14.0589 6 24 6" stroke="black" stroke-width="4" stroke-linecap="round" stroke-linejoin="round"/>
  <path d="M24 42C33.9411 42 42 33.9411 42 24C42 14.0589 33.9411 6 24 6C24 6 20 8 20 15C20 22 28 26 28 33C28 40 24 42 24 42Z" fill="#2F88FF" stroke="black" stroke-width="4"/>
  <path d="M42 20H44V28H42" stroke="black" stroke-width="4" stroke-linecap="round" stroke-linejoin="round"/>
  <path d="M6 20H4V28H6" stroke="black" stroke-width="4" stroke-linecap="round" stroke-linejoin="round"/>
</svg>

<svg width="48" height="48" fill="none" xmlns="http://www.w3.org/2000/svg"><path d="M24 42c-9.941 0-18-8.059-18-18S14.059 6 24 6" stroke="#000" stroke-width="4" stroke-linecap="round" stroke-linejoin="round"/><path d="M24 42c9.941 0 18-8.059 18-18S33.941 6 24 6c0 0-4 2-4 9s8 11 8 18-4 9-4 9Z" fill="#2F88FF" stroke="#000" stroke-width="4"/><path d="M42 20h2v8h-2M6 20H4v8h2" stroke="#000" stroke-width="4" stroke-linecap="round" stroke-linejoin="round"/></svg>
